X:1
T:Leveles a május
C:Hungarian folk song
Z:Public Domain
L:1/8
M:4/4
K:C
V:1 treble nm="Voice"
%%MIDI program 52
V:1
 GFEF G2 e2 | dcdc G4 :| eedc AA A2 | FFAB c>G G2 | ccdd e4 | f2 d2 BGAB | c2 e2 c2 z2 |] %7
w: Le- ve- les a má- jus,|vi- rá- gos a rét,|Bú- za- vi- rág- ko- szo- rú,|Ma sen- ki se szo- mo- rú,|Rám ra- gyog az ég,|sej- haj, má- jus cso- da|szép hó- nap!-|
w: Ma- já- lis- ra men- ni|vol- na csu- da- szép,||||||

